packages/core/src/svgs/tokens/mono/WOM.svg

<svg width="24" height="24" viewBox="0 0 24 24" fill="none" xmlns="http://www.w3.org/2000/svg">
<path fill-rule="evenodd" clip-rule="evenodd" d="M9.18744 2C8.93884 2 8.70039 2.09877 8.52457 2.27457C8.34875 2.45039 8.24998 2.68886 8.24998 2.93749V4.09187C5.29375 5.49624 3.25 8.50935 3.25 11.9999C3.25 15.4906 5.29375 18.5037 8.24998 19.908V21.0624C8.24998 21.3111 8.34875 21.5495 8.52457 21.7254C8.70039 21.9011 8.93884 22 9.18744 22C9.43608 22 9.67452 21.9011 9.8504 21.7254C10.0263 21.5495 10.125 21.3111 10.125 21.0624V20.5487C10.7287 20.6799 11.3563 20.7499 12 20.7499C12.6437 20.7499 13.2712 20.6805 13.8749 20.5487V21.0624C13.8749 21.3111 13.9737 21.5495 14.1495 21.7254C14.3254 21.9011 14.5639 22 14.8125 22C15.0611 22 15.2996 21.9011 15.4753 21.7254C15.6512 21.5495 15.7499 21.3111 15.7499 21.0624V19.908C18.7062 18.5037 20.7499 15.4906 20.7499 11.9999C20.7499 8.50935 18.7062 5.49624 15.7499 4.09187V2.93749C15.7499 2.68886 15.6512 2.45039 15.4753 2.27457C15.2996 2.09877 15.0611 2 14.8125 2C14.5639 2 14.3254 2.09877 14.1495 2.27457C13.9737 2.45039 13.8749 2.68886 13.8749 2.93749V3.45124C13.2589 3.31706 12.6304 3.24958 12 3.24999C11.3563 3.24999 10.7287 3.31936 10.125 3.45124V2.93749C10.125 2.68886 10.0263 2.45039 9.8504 2.27457C9.67452 2.09877 9.43608 2 9.18744 2ZM13.8749 5.41498C13.2725 5.22748 12.6418 5.12498 12 5.12498C11.3582 5.12498 10.7274 5.22686 10.125 5.41498V9.18742C10.125 9.43606 10.0263 9.6745 9.8504 9.85037C9.67452 10.0262 9.43608 10.125 9.18744 10.125C8.93884 10.125 8.70039 10.0262 8.52457 9.85037C8.34875 9.6745 8.24998 9.43606 8.24998 9.18742V6.33185C6.40311 7.60185 5.12499 9.72744 5.12499 11.9999C5.12499 15.6243 8.3756 18.8749 12 18.8749C15.6244 18.8749 18.875 15.6243 18.875 11.9999C18.875 9.72744 17.5969 7.60185 15.7499 6.33185V9.18742C15.7499 9.43606 15.6512 9.6745 15.4753 9.85037C15.2996 10.0262 15.0611 10.125 14.8125 10.125C14.5639 10.125 14.3254 10.0262 14.1495 9.85037C13.9737 9.6745 13.8749 9.43606 13.8749 9.18742V5.41498ZM9.14879 2.50499C9.11963 2.48106 9.08565 2.46354 9.04929 2.4536C9.01289 2.44365 8.97481 2.44151 8.93754 2.44728C8.90025 2.45307 8.86461 2.46665 8.83293 2.48715C8.80126 2.50764 8.77428 2.53459 8.75373 2.56624L8.5156 2.91999C8.47203 2.98678 8.45469 3.06732 8.46691 3.14613C8.47914 3.22494 8.52008 3.29642 8.58185 3.34687C8.61102 3.3708 8.6449 3.38831 8.6813 3.39826C8.7177 3.40821 8.75577 3.41035 8.79305 3.40457C8.83034 3.39879 8.86598 3.38521 8.89765 3.3647C8.92933 3.34421 8.95631 3.31726 8.97686 3.28562L9.21442 2.93124C9.25788 2.86458 9.27523 2.78422 9.26313 2.70557C9.25102 2.62691 9.21019 2.55549 9.14879 2.50499ZM7.63936 13.8681C7.98124 13.5262 8.51061 13.5787 9.05998 14.0838C9.18686 14.2006 9.31184 14.3312 9.44119 14.4663C10.0099 15.0624 10.6662 15.7499 12 15.7499C13.4337 15.7499 14.4637 14.7436 14.8968 14.2112C15.1425 13.9093 15.7944 13.5413 16.3249 13.8681C16.6738 14.0838 16.79 14.7493 16.585 15.0444C15.9662 15.9355 14.4505 17.6399 12 17.625C9.54998 17.61 8.06311 15.9231 7.48124 15.0444C7.35623 14.8549 7.16373 14.343 7.63936 13.8681ZM14.3743 2.56561C14.395 2.53395 14.422 2.507 14.4538 2.4865C14.4854 2.46599 14.5211 2.4524 14.5585 2.44663C14.5958 2.44085 14.6339 2.443 14.6703 2.45296C14.7068 2.4629 14.7408 2.48042 14.7699 2.50436C14.8319 2.55472 14.8729 2.62624 14.8851 2.70507C14.8974 2.78392 14.8799 2.8645 14.8363 2.93124L14.5974 3.28436C14.5768 3.31598 14.5499 3.34292 14.5182 3.36341C14.4866 3.38391 14.451 3.39753 14.4138 3.40336C14.3765 3.4092 14.3384 3.40713 14.3021 3.39728C14.2656 3.38744 14.2317 3.37006 14.2025 3.34624C14.1405 3.29588 14.0995 3.22438 14.0873 3.14553C14.075 3.06669 14.0925 2.98611 14.1363 2.91936L14.3743 2.56561Z" fill="white"/>
</svg>

<svg xmlns="http://www.w3.org/2000/svg" width="24" height="24" fill="none" viewBox="0 0 24 24">
    <path fill="#fff" fill-rule="evenodd" d="M9.187 2a.94.94 0 0 0-.937.937v1.155a8.75 8.75 0 0 0-5 7.908 8.75 8.75 0 0 0 5 7.908v1.154a.938.938 0 0 0 1.875 0v-.513a8.8 8.8 0 0 0 3.75 0v.513a.938.938 0 0 0 1.875 0v-1.154a8.75 8.75 0 0 0 5-7.908 8.75 8.75 0 0 0-5-7.908V2.937a.937.937 0 1 0-1.875 0v.514a8.8 8.8 0 0 0-3.75 0v-.514A.937.937 0 0 0 9.187 2m4.688 3.415A6.3 6.3 0 0 0 12 5.125c-.642 0-1.273.102-1.875.29v3.772a.937.937 0 1 1-1.875 0V6.332C6.403 7.602 5.125 9.727 5.125 12c0 3.624 3.25 6.875 6.875 6.875s6.875-3.25 6.875-6.875c0-2.273-1.278-4.398-3.125-5.668v2.855a.937.937 0 1 1-1.875 0zm-4.726-2.91a.27.27 0 0 0-.395.061l-.238.354a.323.323 0 0 0 .066.427.27.27 0 0 0 .395-.061l.237-.355a.323.323 0 0 0-.065-.426m-1.51 11.363c.342-.342.872-.29 1.421.216q.189.178.381.382c.569.596 1.225 1.284 2.559 1.284 1.434 0 2.464-1.006 2.897-1.539.245-.302.897-.67 1.428-.343.349.216.465.881.26 1.176-.619.891-2.135 2.596-4.585 2.581s-3.937-1.702-4.519-2.58a.91.91 0 0 1 .158-1.177m6.735-11.302a.27.27 0 0 1 .396-.062.32.32 0 0 1 .066.427l-.239.353a.27.27 0 0 1-.394.062.32.32 0 0 1-.067-.427z" clip-rule="evenodd"/>
</svg>
